X:1
T:Title
L:1/8
Q:1/4=100
M:4/4
K:Bb
V:1 treble nm="Grand Piano"
V:1
 D2 _D=D B2 B2 | c2 Bc B2 A2 | B2 AB A2 GG | A2 GA G2 ^F2 | D2 _D=D A2 AA | B2 AB A2 G2 | %6
w: ????~???? * * * *||||||
 AAGA G2 F2 | G2 FG FE D2 | DDDE F2 F2 | E2 EF G2 G2 | FFFG A2 A2 | d2 cd c2 B2 |] %12
w: ||||||

